ui/StatusQ/src/assets/img/icons/caution.svg

<svg fill="none" height="24" viewBox="0 0 24 24" width="24" xmlns="http://www.w3.org/2000/svg"><path clip-rule="evenodd" d="m12.2932 3.72698 8.1321 15.92722c.1072.2098.0933.4457-.0059.6301-.0974.1811-.2128.2157-.2873.2157h-16.26419c-.07456 0-.18989-.0346-.28733-.2157-.09923-.1844-.11307-.4203-.00592-.6301l8.13214-15.92722c.0565-.11066.1175-.16254.1588-.18796.0444-.02728.0904-.03902.1344-.03902s.09.01174.1344.03902c.0413.02542.1023.0773.1588.18796zm-1.9224-.6821c.7113-1.39317 2.5471-1.39317 3.2584 0l8.1321 15.92722c.693 1.3573-.2058 3.0279-1.6292 3.0279h-16.26419c-1.42339 0-2.32224-1.6706-1.62919-3.0279zm2.3792 5.20512c0-.75-.3358-.75-.75-.75s-.75.33579-.75.75v6c0 .4142.3358.75.75.75s.75-.3358.75-.75zm.5 9.5c0 .6904-.5596 1.25-1.25 1.25s-1.25-.5596-1.25-1.25.5596-1.25 1.25-1.25 1.25.5596 1.25 1.25z" fill="#f6793c" fill-rule="evenodd"/></svg>

<svg width="24" height="24" viewBox="0 0 24 24" fill="none" xmlns="http://www.w3.org/2000/svg">
<path fill-rule="evenodd" clip-rule="evenodd" d="M12.2932 3.72698L20.4253 19.6542C20.5325 19.864 20.5186 20.0999 20.4194 20.2843C20.322 20.4654 20.2066 20.5 20.1321 20.5H3.86791C3.79335 20.5 3.67802 20.4654 3.58058 20.2843C3.48135 20.0999 3.46751 19.864 3.57466 19.6542L11.7068 3.72698C11.7633 3.61632 11.8243 3.56444 11.8656 3.53902C11.91 3.51174 11.956 3.5 12 3.5C12.044 3.5 12.09 3.51174 12.1344 3.53902C12.1757 3.56444 12.2367 3.61632 12.2932 3.72698ZM10.3708 3.04488C11.0821 1.65171 12.9179 1.65171 13.6292 3.04488L21.7613 18.9721C22.4543 20.3294 21.5555 22 20.1321 22H3.86791C2.44452 22 1.54567 20.3294 2.23872 18.9721L10.3708 3.04488ZM12.75 8.25C12.75 7.5 12.4142 7.5 12 7.5C11.5858 7.5 11.25 7.83579 11.25 8.25V14.25C11.25 14.6642 11.5858 15 12 15C12.4142 15 12.75 14.6642 12.75 14.25V8.25ZM13.25 17.75C13.25 18.4404 12.6904 19 12 19C11.3096 19 10.75 18.4404 10.75 17.75C10.75 17.0596 11.3096 16.5 12 16.5C12.6904 16.5 13.25 17.0596 13.25 17.75Z" fill="#F6793C"/>
</svg>
